X:174
T: Der grausame Bruder
N: Q0068R
O: Mitteleuropa, Deutschland (BRD) , Wuerttemberg
N: Finaltoene zweistimmig. Oberen kodiert. Grundton in der
N: zweigestrichenen Oktave.
R: Ballade, Schwangerschaft, Moral, Mord
M: none
L: 1/16
K: C
G,4 | C4D4 | EDEF | GAG2F4 | E4
G4 | A4G4 | F4E4D4D4 | E2F2G2F2 | E4
G,4 | C4C4D4 | E4E2F2 | G4G2F2 | E4

@@@ Tune index: 1050
